dist/svgs/carbon-icons/svg/security.svg

<svg xmlns="http://www.w3.org/2000/svg" fill-rule="evenodd" viewBox="0 0 16 24"><path d="M13 9.8V5c0-2.8-2.2-5-5-5S3 2.2 3 5v4.8c-1.8 1.5-3 3.7-3 6.2 0 4.4 3.6 8 8 8s8-3.6 8-8c0-2.5-1.2-4.8-3-6.2zM4 5c0-2.2 1.8-4 4-4s4 1.8 4 4v4.1C10.8 8.4 9.5 8 8 8s-2.8.4-4 1.1V5zm4 18c-3.9 0-7-3.1-7-7s3.1-7 7-7 7 3.1 7 7-3.1 7-7 7z"/><path d="M9.6 14.4c0-.9-.7-1.6-1.6-1.6-.9 0-1.6.7-1.6 1.6 0 .5.2.9.6 1.2V18c0 .6.4 1 1 1s1-.5 1-1v-2.4c.3-.2.6-.7.6-1.2z"/></svg>

<svg width="16px" height="24px" viewBox="0 0 16 24" version="1.1" xmlns="http://www.w3.org/2000/svg" xmlns:xlink="http://www.w3.org/1999/xlink" fill-rule="evenodd">
	<path d="M13,9.8 L13,5 C13,2.2 10.8,0 8,0 C5.2,0 3,2.2 3,5 L3,9.8 C1.2,11.3 0,13.5 0,16 C0,20.4 3.6,24 8,24 C12.4,24 16,20.4 16,16 C16,13.5 14.8,11.2 13,9.8 L13,9.8 Z M4,5 C4,2.8 5.8,1 8,1 C10.2,1 12,2.8 12,5 L12,9.1 C10.8,8.4 9.5,8 8,8 C6.5,8 5.2,8.4 4,9.1 L4,5 L4,5 Z M8,23 C4.1,23 1,19.9 1,16 C1,12.1 4.1,9 8,9 C11.9,9 15,12.1 15,16 C15,19.9 11.9,23 8,23 L8,23 Z" id="Shape" fill="#010101"></path>
	<path d="M9.6,14.4 C9.6,13.5 8.9,12.8 8,12.8 C7.1,12.8 6.4,13.5 6.4,14.4 C6.4,14.9 6.6,15.3 7,15.6 L7,18 C7,18.6 7.4,19 8,19 L8,19 C8.6,19 9,18.5 9,18 L9,15.6 C9.3,15.4 9.6,14.9 9.6,14.4 L9.6,14.4 Z" id="Shape" fill="#010101"></path>
</svg>
